packages/core/src/svgs/tokens/mono/KAS.svg

<svg width="24" height="24" viewBox="0 0 24 24" fill="none" xmlns="http://www.w3.org/2000/svg">
<path d="M9.80043 2.05031C8.79397 2.16634 7.82469 2.49946 6.95954 3.02669C6.10668 3.55606 3.40694 6.18521 2.85406 7.0263C2.11883 8.14383 2.05413 8.43793 2.00707 10.6731C1.97179 12.7845 2.0659 14.0374 2.34823 15.0255C2.67172 16.1548 3.00699 16.6254 4.81857 18.5075C6.67133 20.4309 7.26539 20.9308 8.11237 21.272C9.94234 22.053 11.9789 22.2079 13.9059 21.713C17.0056 20.9073 19.3583 19.0368 20.7288 16.3019C21.1798 15.3161 21.5668 14.3024 21.8874 13.2669C22.058 12.6669 22.0286 10.9024 21.8405 10.1907C21.2405 7.9321 20.4464 6.43224 19.0936 5.0265C17.6832 3.5928 15.8838 2.6032 13.9177 2.17972C12.5529 2.00099 11.1738 1.95763 9.80043 2.05031ZM14.647 6.30872L15.5293 12.0023C15.2646 13.7786 14.8469 15.8196 14.5999 17.59L12.506 17.1017C12.8119 15.1666 13.0942 13.3139 13.059 13.2786C13.0412 13.261 12.9707 13.2786 12.9061 13.3375C12.0237 14.0256 8.68878 16.5253 8.68878 16.5253L7.41244 14.9079C8.02414 14.4021 11.2062 11.9082 11.2062 11.9082L7.41244 8.87318L8.59466 7.26745L13.0649 10.5318C13.0649 10.5318 12.612 7.07924 12.5237 6.69692L14.6411 6.30872H14.647Z" fill="white"/>
</svg>

<svg xmlns="http://www.w3.org/2000/svg" width="24" height="24" fill="none" viewBox="0 0 24 24">
    <path fill="#fff" d="M9.8 2.05a7 7 0 0 0-2.84.977c-.853.53-3.553 3.158-4.106 4-.735 1.117-.8 1.41-.847 3.646-.035 2.111.059 3.364.341 4.352.324 1.13.659 1.6 2.47 3.483 1.853 1.923 2.447 2.423 3.294 2.764a9.03 9.03 0 0 0 5.794.441c3.1-.806 5.452-2.676 6.823-5.411q.677-1.48 1.158-3.035c.171-.6.142-2.365-.047-3.076-.6-2.259-1.394-3.759-2.746-5.164a10.3 10.3 0 0 0-5.176-2.847A21 21 0 0 0 9.8 2.05m4.847 4.259.882 5.693c-.264 1.777-.682 3.818-.93 5.588l-2.093-.488c.306-1.935.588-3.788.553-3.823-.018-.018-.088 0-.153.059-.882.688-4.217 3.187-4.217 3.187l-1.277-1.617c.612-.506 3.794-3 3.794-3L7.412 8.873l1.183-1.606 4.47 3.265s-.453-3.453-.541-3.835l2.117-.388z"/>
</svg>
